!!!OTL: 592. Der weisse Hirsch.
!!!COM: Volksweise
!!!ODT: 1750 (vor)
!!!ARE: Europa, Mitteleuropa, Deutschland
!!!SCT: B0592
!!!TXL: @@DE
!!!YEM: Copyright 1995, estate of Helmut Schaffrath.
**kern	**text
*ICvox	*
*Ivox	*
*clefG2	*
*M6/8	*
*k[f#c#]	*
*D:	*
!LO:TX:a:t=Mäßig.	!
{8d	Es
=1	=1
(8.d	gin-
16f#)	-gen
8a	drei
8.dd	Jä-
16cc#	-ger
8b	wohl
=2	=2
8.bL	auf
16aJ	.
8a	die
4f#}	Birſch,
{8f#	ſie
=3	=3
8.f#	woll-
16e	-ten
8f#	er-
8.a	-ja-
16e	-gen
8e	den
=4	=4
8.gL	wei-
16f#J	.
8f#	-ßen
4d}	Hirſch,
{8d	ſie
=5	=5
8.f#	woll-
16a	-ten
8dd	er-
(8.ff#	-ja-
16ee)	-gen
8dd	den
=6	=6
8.eeL	weißen
16ddJ	.
8cc#	.
4dd}	Hirſch.
=||	=||
!LO:TX:a:t=Schluß=Str.7.	!
{8ff#	Huſch
=7	=7
4dd	huſch!
8ff#	Piff
4dd	paff!
8a	Tra-
=8	=8
[4.dd	-ra!
8dd]	.
8r}	.
==	==
!!!AGN: Staende -, Jaeger - Lied
!!!GTL: Jägerlieder
!!!ONB: ESAC (Essen Associative Code) Database: BOEHME
!!!AMT: compound duple
!!!AIN: vox
!!!EED: Helmut Schaffrath
!!!EEV: 1.0
!!Volksweiſe, vor 1750 bekannt.
!!@@COMMENT:"Gedicht von L. Uhland 1811. Für Männerchor komponirt v. Kreutʒer, Guſt. Reichardt u. a."
!!@@END:
!!!Text: L. Uhland
!!!URL-scan: https://archive.org/details/BoehmeVtLieder1895/page/n469/mode/2up
!!!ENC: Anna Maria Matuszewska
!!!EEV: 2024/15/07
*-	*-
